!!!COM: Palestrina, Giovanni Perluigi da
!!!OPR: Missa Octavi toni
!!!OMD: Credo
!!!OTL: Et unam Sanctam
**kern	**kern	**kern	**kern	**kern	**kern
*Ibass	*Itenor	*Itenor	*Icalto	*Icant	*Icant
!Bassus	!Tenor 2	!Tenor 1	!Altus	!Cantus 2	!Cantus 1
*clefF4	*clefGv2	*clefGv2	*clefG2	*clefG2	*clefG2
*k[]	*k[]	*k[]	*k[]	*k[]	*k[]
*G:mix	*G:mix	*G:mix	*G:mix	*G:mix	*G:mix
*M4/2	*M4/2	*M4/2	*M4/2	*M4/2	*M4/2
=165	=165	=165	=165	=165	=165
1D	1A	2r	1d	0r	1f#
.	.	2D	.	.	.
1D	1A	1F#	1d	.	1a
=166	=166	=166	=166	=166	=166
2GG	1B	1G	1d	0r	1g
2.G	.	.	.	.	.
.	1A	1D	[1d	.	1a
8F#	.	.	.	.	.
8E	.	.	.	.	.
2F#	.	.	.	.	.
=167	=167	=167	=167	=167	=167
2G	0G	1d	2d]	0r	1b
2G	.	.	2G	.	.
4C	.	1e	1g	.	1cc
4D	.	.	.	.	.
4E	.	.	.	.	.
4F	.	.	.	.	.
=168	=168	=168	=168	=168	=168
2G	0r	2d	2g	0r	2b
2A	.	2c	2e	.	1a
1E	.	1B	1e	.	.
.	.	.	.	.	2g
=169	=169	=169	=169	=169	=169
1D	2r	1d	1A	1f	2.a
.	1d	.	.	.	.
.	.	.	.	.	4g
1r	.	2r	1r	1a	2f
.	[2c	2A	.	.	2e
=170	=170	=170	=170	=170	=170
0r	2c]	2c	0r	1g	2e
.	2B	2d	.	.	2d
.	2.A	2.c	.	2.a	2e
.	.	.	.	.	2f#
.	4A	4c	.	4a	.
=171	=171	=171	=171	=171	=171
0r	1G	1d	2r	1b	1g
.	.	.	2d	.	.
.	1F	1r	2.f	1cc	1a
.	.	.	4e	.	.
=172	=172	=172	=172	=172	=172
0r	2G	1r	2d	2b-	2g
.	2A	.	2c	1a	2f
.	1B-	2r	1d	.	2f
.	.	[2d	.	2g	4e
.	.	.	.	.	4d
=173	=173	=173	=173	=173	=173
2r	1A	2d]	1r	1a	0e
1A	.	1c	.	.	.
.	1r	.	2r	1r	.
[2G	.	4B	2e	.	.
.	.	4A	.	.	.
=174	=174	=174	=174	=174	=174
2G]	0r	2B	2.d	0r	2r
2F	.	2A	.	.	1a
.	.	.	4d	.	.
1E	.	2.B	1e	.	.
.	.	.	.	.	[2g
.	.	4c	.	.	.
=175	=175	=175	=175	=175	=175
1D	0r	1d	1A	0r	2g]
.	.	.	.	.	2f
1C	.	1G	1c	.	1e
=176	=176	=176	=176	=176	=176
2D	1r	2d	2A	0r	2f#
2E	.	2c	2G	.	1g
1D	2r	2.d	1A	.	.
.	[2d	.	.	.	2f#
.	.	4c	.	.	.
=177	=177	=177	=177	=177	=177
2GG	2d]	2B	2r	0r	1g
4C	2c	2c	1e	.	.
4D	.	.	.	.	.
4E	1B	1G	.	.	1g
4F	.	.	.	.	.
[2G	.	.	2d	.	.
=178	=178	=178	=178	=178	=178
2G]	1A	1r	1.d	1a	0r
2F#	.	.	.	.	.
2G	2B	2r	.	1g	.
2C	2E	[2e	2c	.	.
=179	=179	=179	=179	=179	=179
1D	2.F	2e]	0A	2.f	0r
.	.	2d	.	.	.
.	4G	.	.	4f	.
1AA	4A	2d	.	1e	.
.	8G	.	.	.	.
.	8F	.	.	.	.
.	2E	2c#	.	.	.
=180	=180	=180	=180	=180	=180
1D	1.D	2d	1A	1f#	0r
.	.	2d	.	.	.
4GG	.	2B	1d	1g	.
4AA	.	.	.	.	.
4BB	[2d	2B	.	.	.
4C	.	.	.	.	.
=181	=181	=181	=181	=181	=181
1D	4d]	1A	1d	1f#	0r
.	4c	.	.	.	.
.	2A	.	.	.	.
1GG	1B	[1G	1d	1g	.
=182	=182	=182	=182	=182	=182
0C	1c	1G]	1e	1g	0r
.	1r	[1c	[1e	1g	.
=183	=183	=183	=183	=183	=183
0r	0r	1c]	1e]	1cc	0g
.	.	1G	2d	1b	.
.	.	.	[2e	.	.
=184	=184	=184	=184	=184	=184
0r	0r	1A	4e]	1cc	2e
.	.	.	4c	.	.
.	.	.	1f	.	2.a
.	.	1B-	.	[1dd	.
.	.	.	.	.	4g
.	.	.	4e	.	4g
.	.	.	4d	.	8f
.	.	.	.	.	8g
=185	=185	=185	=185	=185	=185
0r	0r	0A	0e	2dd]	0a
.	.	.	.	4cc#	.
.	.	.	.	4b	.
.	.	.	.	1cc#	.
*-	*-	*-	*-	*-	*-
!!!CDT: 1525/^1526/-1594/2/2
!!!OCY: Italia
!!!AGN: Mass (Tenor)
!!!AST: renaissance, vocal
!!!ASW: Hymn
!!!PWK: Masses, Book 11
!!!RNB: Cadence finals: A,C
!!!YOR: Le Opere Complete, v. 28, p. 114
!!!YOO: Rome, Italy: Fratelli Scalera
!!!END: 1992//
!!!EED: John Miller
!!!YEC: Copyright 2000, John Miller
!!!YEN: United States of America
!!!YEM: Rights to all derivative electronic formats reserved.
!!!YEM: Refer to licensing agreement for further details.
!!!YEM: This file must be accompanied by the licensing agreement.
!!!YEM: A copy of the licensing agreement may be found at http://www.music-cog.ohio-state.edu/HumdrumDatabases/Palestrina/license.txt
!!!EMD: converted to Humdrum by Bret Aarden
